X: 337
T: CATHERINE TYRRELL
T: Caitilin Tirriall
B: O'Neill's 337
M: 3/4
L: 1/8
Z: 1999 by John Chambers <jc@trillian.mit.edu>
N: "Slow"
N: "Collected by F.O'Neill"
N: 2nd Setting
K:G
GE \
|D2E2F2|G4GA|.B2g2f2|e4ge \
|d2e2d2|B2A2B2|G2AGF2|E4GE|
|D2E2F2|G4GA|.B2g2f2|e4age \
|~d2e2d2|~B2A2B2|G2AGF2|G4||
||GA \
|~B2A2B2|~g2f2g2|a3gfe|d4gf \
|e2d2B2|B2A2B2|G2AGF2|E4GE|
|D2E2F2|G4GA|.B2g2f2|e4ge \
|d2e2d2|~B2A2B2|G2AGF2|G4||
